src/lib/packages/icons/src/assets/filled/image-gallery-plus.svg

<svg width="24" height="24" viewBox="0 0 24 24" fill="none" xmlns="http://www.w3.org/2000/svg">
<path d="M22.448 7.60798L21.248 16.189C21.091 17.282 20.664 18.058 19.991 18.501C19.758 18.621 19.5031 18.5001 19.5031 18.2571V9.66609C19.5031 7.05709 17.9451 5.49909 15.3361 5.49909C15.3361 5.49909 6.22395 5.49909 5.92395 5.49909C5.62395 5.49909 5.61694 5.22896 5.63794 5.10896C5.79594 4.16296 6.17 3.46295 6.75 3.02595C7.357 2.56895 8.17702 2.41005 9.19202 2.55305L19.7531 4.03303C20.7701 4.17703 21.518 4.55809 21.976 5.16609C22.433 5.77309 22.592 6.59498 22.448 7.60798ZM18.002 9.66511V18.3331C18.002 20.1111 17.113 21.0001 15.335 21.0001H4.66699C2.88899 21.0001 2 20.1111 2 18.3331V9.66511C2 7.88711 2.88899 6.99812 4.66699 6.99812H15.335C17.114 6.99812 18.002 7.88711 18.002 9.66511ZM13.25 14.0001C13.25 13.5861 12.914 13.2501 12.5 13.2501H10.75V11.5001C10.75 11.0861 10.414 10.7501 10 10.7501C9.586 10.7501 9.25 11.0861 9.25 11.5001V13.2501H7.5C7.086 13.2501 6.75 13.5861 6.75 14.0001C6.75 14.4141 7.086 14.7501 7.5 14.7501H9.25V16.5001C9.25 16.9141 9.586 17.2501 10 17.2501C10.414 17.2501 10.75 16.9141 10.75 16.5001V14.7501H12.5C12.914 14.7501 13.25 14.4141 13.25 14.0001Z" fill="currentColor"/>
</svg>

<svg xmlns="http://www.w3.org/2000/svg" width="24" height="24" fill="none"><path fill="currentColor" d="m22.448 7.608-1.2 8.581c-.157 1.093-.584 1.869-1.257 2.312-.233.12-.488 0-.488-.244v-8.59c0-2.61-1.558-4.168-4.167-4.168H5.924c-.3 0-.307-.27-.286-.39.158-.946.532-1.646 1.112-2.083.607-.457 1.427-.616 2.442-.473l10.561 1.48c1.017.144 1.765.525 2.223 1.133.457.607.616 1.429.472 2.442Zm-4.446 2.057v8.668c0 1.778-.889 2.667-2.667 2.667H4.667C2.889 21 2 20.111 2 18.333V9.665c0-1.778.889-2.667 2.667-2.667h10.668c1.779 0 2.667.89 2.667 2.667ZM13.25 14a.75.75 0 0 0-.75-.75h-1.75V11.5a.75.75 0 0 0-1.5 0v1.75H7.5a.75.75 0 0 0 0 1.5h1.75v1.75a.75.75 0 0 0 1.5 0v-1.75h1.75a.75.75 0 0 0 .75-.75Z"/></svg>
